X: 29
T:Prince Imperial Galop
C:Anon
M:4/4
R:reel
Q:1/2=120
L:1/4
K:C
"C"G2 GE/2G/2|"C"AGEG|"C"cB/2c/2dc|"F"B2A2|"G"d>d ed|"F"cBAB|"Dm"dcBA|"F"A2 "G7"G2|
"C"G2 GE/2G/2|"C"AGEG|"C"cB/2c/2dc|"F"B2A2|"Dm"d>d ed|"C"G>c dc|"G7"BGAB|"C"c3 ||
K:G
"D7"c|"G"B3c|"G"d3d|"G"dg"Em"Be|"G"d2"C"cB|"D"A3B|"Am"c3d|"D"fedc|"D7"ed ^c=c|
"G"B3c|"G"d3d|"G"dg "Em"Be|"G"d2cB|"D"A3B|"Am"c3d|"D7"edef|"G"g2 "G7"g2||
